X:30
T:Miss Bakers Hornpipe. JBs.030
S:Jas.Blackshaw MS, 1837, N.Shropshire
Z:Tony Weatherall 2006
M:C
L:1/8
Q:1/2=90
N:The time sig. was marked as 6/8 in the MS.
A:North Shropshire
R:.Hornpipe
K:G
dc|B2G2GBAG|FGAB c2dc|Bdef gdec|B2G2G2:|!
|:(3def|gdBd â€œ*â€gbag|afdf acâ€™ba|bgaf geag|f2d2d2gd|!
(3efg (3Bcd c2câ€™2|bagf edcB|(3cde (3ABc Fedc|B2G2G2:|

